actions/22x22-light/dialog-rows-and-columns.svg

<svg xmlns="http://www.w3.org/2000/svg" viewBox="0 0 22 22">
 <defs id="defs3051">
   <style type="text/css" id="current-color-scheme">
     .ColorScheme-Text {
       color:#4d4d4d;
     }
     </style>
 </defs>
   <path
      style="fill:currentColor;fill-opacity:1;stroke:none"
      d="m3 3v5.3339844h8v-5.3339844zm9.333984 0v8h6.666016v-8zm-9.333984 9.333984v6.666016h8v-6.666016zm9.333984 0v4h6.666016v-4z"
      class="ColorScheme-Text" />
</svg>

<svg xmlns="http://www.w3.org/2000/svg" viewBox="0 0 22 22">
  <defs id="defs3051">
    <style type="text/css" id="current-color-scheme">
      .ColorScheme-Text {
        color:#4d4d4d
      }
      </style>
  </defs>
 <path 
     style="fill:currentColor;fill-opacity:1;stroke:none"      
	 class="ColorScheme-Text"
        d="M 3 3 L 3 8.3339844 L 11 8.3339844 L 11 3 L 3 3 z M 12.333984 3 L 12.333984 11 L 19 11 L 19 3 L 12.333984 3 z M 3 12.333984 L 3 19 L 11 19 L 11 12.333984 L 3 12.333984 z M 12.333984 12.333984 L 12.333984 16.333984 L 19 16.333984 L 19 12.333984 L 12.333984 12.333984 z "
     />
</svg>
